X: 1814
T: Arctic Winds, The
R: jig
M: 6/8
K: Dmajor
E|:FAG FAG|FDE FAd|BFF Bcd|BBB dcB|
AdG FAG|FDE FAd|BGE cde|1 fag fdA:|2 f/g/ag fdd||
|:fed aaa|def fed|ecA AAA|(3Bcd e ABc|
~B3 def|ffb bag|~a2 f def|1 ecA d2f:|2 ecA BAG||"Ending"|A6||

